X: 2407
Q: "Sand Jig."
M: C
L: 1/8
K: G
(DG) |\
(GB) |:\
d3B cBce | d2 B4 A2 | G3A G2E2 | G6 (GA) |\
[1 GDEF GABc :|[2 G2[g2B2] [g2B2] :|


